X: 1089
T: Jenny come tye my Cravat.
%R: air, waltz
B: Henry Playford "Apollo's Banquet", London 1687 (5th Edition)
F: https://archive.org/details/apollosbanquetco01rugg
Z: 2017 John Chambers <jc:trillian.mit.edu>
M: 3/4
L: 1/8
K: D
% - - - - - - - - - -
A2 |\
F2D2FG | A3GF2 | E2C2EF | G3FE2 |\
F2D2FG | A3BA2 | fga2f2 | d4 :|
|: d2 |\
fga2f2 | g3fe2 | c2A2ef | f4e2 |\
fga2f2 | g3fe2 | c2A2c2 | d4 |]
% - - - - - - - - - -

%%sep 1 1 500
%%sep 1 1 500

